X:1
T:Ton-Mân, 77.76
T:Ton-Mân, 77.76
T:David Evans, 1912
T:Public Domain Courtesy of the Cyber Hymnal™
C:David Evans, 1912
Z:Public Domain
Z:Courtesy of the Cyber Hymnal™
%%score ( 1 2 ) ( 3 4 )
L:1/8
Q:1/4=115
M:4/4
K:G
V:1 treble 
V:2 treble 
V:3 bass 
V:4 bass 
V:1
 [DB]2 G2 [FA]2 [GB]2 | [Dd]2 B2 [FA]4 | [B,B]2 [B,E]2 [B,^D]2 E2 | [EF]2 [^CG]2 [^DF]4 | %4
 [B,G]2 (ED) A2 [E^G]2 | [EA]2 B2 [Ec]4 | [EB]2 E2 [EG]2 [^DF]2 | [^DF]4 E4 |] %8
V:2
 x2 G2 x4 | x2 (DE) x4 | x6 (B,E) | x8 | x2 E2 (CD) x2 | x2 (=FE) x4 | x2 E2 x4 | x4 E4 |] %8
V:3
 [G,B,]2 [B,D]2 [A,C]2 [G,B,]2 | [F,A,]2 (B,^C) [D,D]4 | [^D,F,]2 [E,G,]2 [F,A,]2 (G,B,) | %3
 [F,B,]2 [E,^A,]2 [B,,B,]4 | [E,G,]2 [G,B,]2 [CE]2 [B,D]2 | [A,C]2 [^G,B,]2 A,4 | %6
 [G,B,]2 [A,C]2 B,2 [B,,A,]2 | [E,A,]4 [E,G,]4 |] %8
V:4
 x8 | x2 G,2 x4 | x6 G,2 | x8 | x8 | x4 A,4 | x4 B,2 x2 | x8 |] %8

